browser/artwork/ic_item.svg

<?xml version="1.0" encoding="UTF-8" standalone="no"?><!-- Created with Inkscape (http://www.inkscape.org/) -->

<svg xmlns:dc="http://purl.org/dc/elements/1.1/" xmlns:cc="http://creativecommons.org/ns#" xmlns:rdf="http://www.w3.org/1999/02/22-rdf-syntax-ns#" xmlns="http://www.w3.org/2000/svg" xmlns:xlink="http://www.w3.org/1999/xlink" xmlns:sodipodi="http://sodipodi.sourceforge.net/DTD/sodipodi-0.dtd" xmlns:inkscape="http://www.inkscape.org/namespaces/inkscape" version="1.0" width="128" height="128" id="svg2"
	inkscape:version="0.48.5 r10040" sodipodi:docname="item.svg" inkscape:export-filename="/home/bbou/Desktop/stale.png" inkscape:export-xdpi="11.25" inkscape:export-ydpi="11.25">
	<metadata id="metadata23">
		<rdf:RDF>
			<cc:Work rdf:about="">
				<dc:format>image/svg+xml</dc:format>
				<dc:type rdf:resource="http://purl.org/dc/dcmitype/StillImage" />
				<dc:title />
			</cc:Work>
		</rdf:RDF>
	</metadata>
	<sodipodi:namedview pagecolor="#ffffff" bordercolor="#666666" borderopacity="1" objecttolerance="10" gridtolerance="10" guidetolerance="10" inkscape:pageopacity="0" inkscape:pageshadow="2" inkscape:window-width="1036" inkscape:window-height="567"
		id="namedview21" showgrid="false" inkscape:zoom="1.5273438" inkscape:cx="28.579379" inkscape:cy="113.77417" inkscape:window-x="430" inkscape:window-y="65" inkscape:window-maximized="0" inkscape:current-layer="svg2" />
	<defs id="defs5">
		<linearGradient id="linearGradient2816">
			<stop style="stop-color:#f07836;stop-opacity:1;" offset="0" id="stop2818" />
			<stop style="stop-color:white;stop-opacity:1" offset="1" id="stop2820" />
		</linearGradient>
		<linearGradient id="linearGradient2794">
			<stop style="stop-color:#545454;stop-opacity:1" offset="0" id="stop2796" />
			<stop style="stop-color:#545454;stop-opacity:1" offset="0.9464286" id="stop2804" />
			<stop style="stop-color:#c5c5c5;stop-opacity:0" offset="1" id="stop2798" />
		</linearGradient>
		<radialGradient inkscape:collect="always" xlink:href="#linearGradient2794" id="radialGradient3841" gradientUnits="userSpaceOnUse" gradientTransform="matrix(0.69631731,0,0,0.73642635,28.332992,17.546143)" cx="62.984127" cy="65.015877"
			fx="62.984127" fy="65.015877" r="54.179893" />
		<linearGradient inkscape:collect="always" xlink:href="#linearGradient2816" id="linearGradient3843" gradientUnits="userSpaceOnUse" gradientTransform="matrix(0.69631731,0,0,0.73642635,28.971376,23.90669)" x1="31.5" y1="63" x2="31.5" y2="12" />
		<linearGradient inkscape:collect="always" xlink:href="#linearGradient2816" id="linearGradient3061" gradientUnits="userSpaceOnUse" gradientTransform="matrix(0.89419004,0,0,0.50191997,9.6878701,-0.29570749)" x1="31.5" y1="63" x2="31.5" y2="12" />
		<radialGradient inkscape:collect="always" xlink:href="#linearGradient2794" id="radialGradient3065" gradientUnits="userSpaceOnUse" gradientTransform="matrix(1.0578729,0,0,1.1181378,-2.9853126,-11.450464)" cx="62.984127" cy="65.015877"
			fx="62.984127" fy="65.015877" r="54.179893" />
		<linearGradient x1="24.046" y1="11.673" gradientTransform="matrix(.55048 0 0 .57816 -3.8262 -5.2762)" x2="24.046" gradientUnits="userSpaceOnUse" y2="34.714" id="linearGradient3677">
			<stop offset="0" style="stop-color:#fff" id="stop3644" />
			<stop offset="1" style="stop-color:#fff;stop-opacity:0" id="stop3646" />
		</linearGradient>
		<linearGradient x1="11.566" y1="22.292" gradientTransform="matrix(.48936 0 0 .48936 1.7132 22.728)" x2="15.215" gradientUnits="userSpaceOnUse" y2="33.955" id="linearGradient3674">
			<stop offset="0" style="stop-color:#fff;stop-opacity:.27451" id="stop2687" />
			<stop offset="1" style="stop-color:#fff;stop-opacity:0" id="stop2689" />
		</linearGradient>
		<linearGradient x1="21.483" x2="21.483" gradientTransform="matrix(.55048 0 0 .57816 -3.8262 -5.2762)" y1="36.255" gradientUnits="userSpaceOnUse" y2="9.58" id="linearGradient2874">
			<stop offset="0" style="stop-color:#a7651c" id="stop3605" />
			<stop offset="1" style="stop-color:#c8a700" id="stop3607" />
		</linearGradient>
		<radialGradient gradientTransform="matrix(0 .92615 -1.0546 0 32.403 -9.3346)" r="13.931" cy="25.625" cx="13.139" gradientUnits="userSpaceOnUse" id="radialGradient2872">
			<stop offset="0" style="stop-color:#ffeb9f" id="stop3692" />
			<stop offset=".26238" style="stop-color:#ffd57e" id="stop3694" />
			<stop offset=".66094" style="stop-color:#ffbc43" id="stop3696" />
			<stop offset="1" style="stop-color:#ff921a" id="stop3698" />
		</radialGradient>
	</defs>
	<path inkscape:connector-curvature="0" d="m 120.95934,61.246242 a 57.315448,60.580595 0 0 1 -114.6308924,0 57.315448,60.580595 0 1 1 114.6308924,0 z" style="fill:url(#radialGradient3065);fill-opacity:1;fill-rule:nonzero;stroke:none" id="path2790" />
	<path inkscape:connector-curvature="0" d="m 127.27075,64.036557 a 61.898566,62.544789 0 0 1 -123.7971305,0 61.898566,62.544789 0 1 1 123.7971305,0 z" style="fill:#ffa500;fill-opacity:1;fill-rule:nonzero;stroke:none" id="path1873" />
	<path id="path3137"
		d="M 128.39789,64.864493 C 128.60423,29.736838 100.31953,1.1179037 65.191872,0.91156866 30.064226,0.70523366 1.4452926,28.989923 1.2389626,64.117578 1.0326226,99.245232 29.317311,127.86419 64.444957,128.07052 99.572614,128.27686 128.19156,99.992149 128.39789,64.864493 z M 112.50303,64.771133 64.538322,112.17565 64.72505,80.385905 17.040471,80.105812 17.2272,48.31608 64.911779,48.596173 65.098508,16.806442 112.50303,64.771133 z"
		inkscape:connector-curvature="0" style="fill:#696969" />
</svg>

<svg xmlns="http://www.w3.org/2000/svg" xmlns:xlink="http://www.w3.org/1999/xlink" width="128" height="128" version="1.0"><defs><linearGradient id="b"><stop offset="0" style="stop-color:#f07836;stop-opacity:1"/><stop offset="1" style="stop-color:white;stop-opacity:1"/></linearGradient><linearGradient id="a"><stop offset="0" style="stop-color:#545454;stop-opacity:1"/><stop offset=".946" style="stop-color:#545454;stop-opacity:1"/><stop offset="1" style="stop-color:#c5c5c5;stop-opacity:0"/></linearGradient><radialGradient xlink:href="#a" id="c" cx="62.984" cy="65.016" r="54.18" fx="62.984" fy="65.016" gradientTransform="matrix(1.05787 0 0 1.11814 -2.985 -11.45)" gradientUnits="userSpaceOnUse"/></defs><path d="M120.96 61.246a57.315 60.58 0 0 1-114.632 0 57.315 60.58 0 1 1 114.631 0z" style="fill:url(#c);fill-opacity:1;fill-rule:nonzero;stroke:none"/><path d="M127.27 64.037a61.899 62.545 0 0 1-123.796 0 61.899 62.545 0 1 1 123.797 0z" style="fill:orange;fill-opacity:1;fill-rule:nonzero;stroke:none"/><path d="M128.398 64.864C128.604 29.737 100.32 1.118 65.192.912 30.064.705 1.445 28.99 1.239 64.118c-.206 35.127 28.078 63.746 63.206 63.953 35.128.206 63.747-28.079 63.953-63.207zm-15.895-.093-47.965 47.405.187-31.79-47.685-.28.187-31.79 47.685.28.187-31.79 47.404 47.965z" style="fill:#696969"/></svg>
